X: 1204
T: An Damhsa Dubh
R: polka
M: 2/4
K: Edorian
|:B2 Ee|ed ~E2|GE Ed|dc de|
B2 Ee|ed ~E2|(3GAB Bd|GE ~E2:|
|:B>G Dd|dc de|c4/3 A4/3 c|cd de|
z e de|gc de|z G GA|AE E2:|

